X: 21752
T: King Of The Fairies
R: hornpipe
M: 4/4
K: Eminor
E2EF G2GA|BcBA G2GA|B2E2 E2G2|FGAF D4|
E2EF G2GA|BcBA G2GA|B2E2 GFED|E4 e4:|
efed B2B2|efed B4|fgaf d2g2|fgaf d2ga|
b2gb a2fa|g2eg f2df|e2ef gfed|e2ef g4|
efed B2B2|g2ab d4|dcBA cBAG|FGAF D4|
GFGA BABd|edef gfed|dcBA BAGF|E4 e4||
B|EDEF GFGA|B2B2 G2GA|B2E2 EFGE|FGFE D2B2|
EDEF GFGA|BAGB d3c|B2E2 GFED|E4 E3:|
B2|e2B2 Bdef|gagf e3f|e2B2 BAGB|dedc Bcde/f/|
e2B2 Bdef|gagf e3d|Bde/f/g fedf|e2 ed e3f|
g2bg f2af|edB^c d3e|dBAF GAB^c|dBAF GFED|
B,2E2 EFGA|B2e2 edef|e2B2 BAGF|E4 E2z2||
efed B2B2|efed B2B2|fgaf d2d2|fgaf d2ga|
b2gb a2fa|g2eg f3d|edef gfed|e2f2g3f|
efed B2B2|efed B3c|dcBA cBAG|FGAF D2EF|
GFGA BABd|edef g2e2|dcBA BAGF|E4 E3||

